**kern	**kern
*part1	*part1
*staff2	*staff1
*I"Piano	*
*clefG2	*clefG2
*k[b-]	*k[b-]
=1	=1
4gn 4bn	(8eeL
.	8ffJ)
4f 4a	(8ddL
.	8eeJ)
4e 4g	(8ccL
.	8ddJ)
=	=
4d 4f	(8bnL
.	8ccJ)
4c 4e	(8aL
.	8bJ)
4Bn 4d	(8gL
.	8aJ)
*clefF4	*
=	=
4A 4c	(8fL
.	8gJ)
4G 4Bn	(8eL
.	8fJ)
4F 4A	(8dL
.	8eJ)
=	=
[2.C [2.E [2.G	[2.B-X [2.c
=	=
2.C_ 2.E_ 2.G_	2.B-_ 2.c_
=	=
!	!LO:TX:b:i:t=suivez
2.C_ 2.E_ 2.G_	2.B-_ 2.c_
=	=
4C] 4E] 4G]	4B-] 4c]
4r	4r
4r	4r
=	=
*-	*-
!!!system-decoration: {(s1,s2)}
